symbols/web/format_list_numbered_rtl/materialsymbolsrounded/format_list_numbered_rtl_grad200_20px.svg

<svg xmlns="http://www.w3.org/2000/svg" height="20" width="20"><path d="M12.604 13.917q.458 0 .802.343.344.344.344.802 0 .459-.344.803-.344.343-.802.343H3.271q-.459 0-.802-.343-.344-.344-.344-.803 0-.458.344-.802.343-.343.802-.343Zm0-5.084q.458 0 .802.344.344.344.344.802 0 .459-.344.802-.344.344-.802.344H3.271q-.459 0-.802-.344-.344-.343-.344-.802 0-.458.344-.802.343-.344.802-.344Zm0-5.083q.458 0 .802.344.344.344.344.802 0 .458-.344.802-.344.344-.802.344H3.271q-.459 0-.802-.344-.344-.344-.344-.802 0-.458.344-.802.343-.344.802-.344Zm4.792 9.583q.208 0 .344.136.135.135.135.343v2.584q0 .208-.135.344-.136.135-.344.135h-1.708q-.209 0-.355-.146-.145-.146-.145-.354t.145-.354q.146-.146.355-.146h1.208v-.292H16.5q-.208 0-.344-.135-.135-.136-.135-.344 0-.208.135-.344.136-.135.344-.135h.396v-.333h-1.229q-.209 0-.344-.136-.135-.135-.135-.344 0-.208.135-.343.135-.136.344-.136Zm-.875-10.208q.208 0 .344.135.135.136.135.344v2.584q0 .208-.135.343-.136.136-.344.136-.209 0-.354-.146-.146-.146-.146-.354V4.125h-.333q-.209 0-.355-.146-.145-.146-.145-.354t.145-.354q.146-.146.355-.146Zm.875 5.125q.208 0 .344.135.135.136.135.344v.188q0 .041-.125.333l-1.354 1.542h1q.208 0 .344.135.135.135.135.344 0 .208-.135.344-.136.135-.344.135h-1.729q-.209 0-.344-.135-.135-.136-.135-.344v-.167q0-.042.124-.333l1.376-1.563h-1.021q-.209 0-.344-.135-.135-.135-.135-.344 0-.208.135-.344.135-.135.344-.135Z"/></svg>

<svg xmlns="http://www.w3.org/2000/svg" height="20" width="20"><path d="M12.604 13.917Q13.062 13.917 13.406 14.26Q13.75 14.604 13.75 15.062Q13.75 15.521 13.406 15.865Q13.062 16.208 12.604 16.208H3.271Q2.812 16.208 2.469 15.865Q2.125 15.521 2.125 15.062Q2.125 14.604 2.469 14.26Q2.812 13.917 3.271 13.917ZM12.604 8.833Q13.062 8.833 13.406 9.177Q13.75 9.521 13.75 9.979Q13.75 10.438 13.406 10.781Q13.062 11.125 12.604 11.125H3.271Q2.812 11.125 2.469 10.781Q2.125 10.438 2.125 9.979Q2.125 9.521 2.469 9.177Q2.812 8.833 3.271 8.833ZM12.604 3.75Q13.062 3.75 13.406 4.094Q13.75 4.438 13.75 4.896Q13.75 5.354 13.406 5.698Q13.062 6.042 12.604 6.042H3.271Q2.812 6.042 2.469 5.698Q2.125 5.354 2.125 4.896Q2.125 4.438 2.469 4.094Q2.812 3.75 3.271 3.75ZM17.396 13.333Q17.604 13.333 17.74 13.469Q17.875 13.604 17.875 13.812V16.396Q17.875 16.604 17.74 16.74Q17.604 16.875 17.396 16.875H15.688Q15.479 16.875 15.333 16.729Q15.188 16.583 15.188 16.375Q15.188 16.167 15.333 16.021Q15.479 15.875 15.688 15.875H16.896V15.583H16.5Q16.292 15.583 16.156 15.448Q16.021 15.312 16.021 15.104Q16.021 14.896 16.156 14.76Q16.292 14.625 16.5 14.625H16.896V14.292H15.667Q15.458 14.292 15.323 14.156Q15.188 14.021 15.188 13.812Q15.188 13.604 15.323 13.469Q15.458 13.333 15.667 13.333ZM16.521 3.125Q16.729 3.125 16.865 3.26Q17 3.396 17 3.604V6.188Q17 6.396 16.865 6.531Q16.729 6.667 16.521 6.667Q16.312 6.667 16.167 6.521Q16.021 6.375 16.021 6.167V4.125H15.688Q15.479 4.125 15.333 3.979Q15.188 3.833 15.188 3.625Q15.188 3.417 15.333 3.271Q15.479 3.125 15.688 3.125ZM17.396 8.25Q17.604 8.25 17.74 8.385Q17.875 8.521 17.875 8.729V8.917Q17.875 8.958 17.75 9.25L16.396 10.792H17.396Q17.604 10.792 17.74 10.927Q17.875 11.062 17.875 11.271Q17.875 11.479 17.74 11.615Q17.604 11.75 17.396 11.75H15.667Q15.458 11.75 15.323 11.615Q15.188 11.479 15.188 11.271V11.104Q15.188 11.062 15.312 10.771L16.688 9.208H15.667Q15.458 9.208 15.323 9.073Q15.188 8.938 15.188 8.729Q15.188 8.521 15.323 8.385Q15.458 8.25 15.667 8.25Z"/></svg>
